!!!SOCIAL_FUNCTION:	songs of war
!!!PDT:	1913
!!!OTL: No_19_I_Will_Go_to_the_South.krn
!!!REG: Great_Lakes
!!!LANG: Non-Tone
!!!LING_GROUP: Algonquin
**kern	**kern
*staff2	*staff1
*clefF4	*clefG2
*k[b-e-]	*k[b-e-]
*M3/4	*M3/4
4.r	16r
.	16g/LK
.	8g/
.	8g/J
=1	=1
12GG^/	2f/
12r	.
12GG/	.
12GG^/	.
12r	.
12GG/	.
12GG^/	(12d/L
12r	12c/)
12GG/	12d/J
=2||	=2||
*M2/4	*M2/4
12GG^/	8.B-/L
12r	.
12GG/	.
.	16d/Jk
4r	8d/L
.	8d/J
*	*clefF4
=3||	=3||
*M3/4	*M3/4
2.r	2B-\
.	(12B-\L
.	12F\)
.	12B-\J
=4	=4
2.r	4B-\
.	[2B-\
=5	=5
*M2/4	*M2/4
2r	8.B-\L]
.	16B-\Jk
.	8B-\L
.	8B-\J
=6||	=6||
*M3/4	*M3/4
2.r	2d\
.	(12d\L
.	12c\)
.	12d\J
=7||	=7||
*M2/4	*M2/4
2r	8.B-\L
.	16d\Jk
.	8d\L
.	8d\J
=8||	=8||
*M3/4	*M3/4
2.r	2B-\
.	(12B-\L
.	12F\)
.	12B-\J
=9	=9
2.r	4B-\
.	[2B-\
=10||	=10||
*M2/4	*M2/4
2r	8.B-\L]
.	16d\Jk
.	8d\L
.	8d\J
=11||	=11||
*M3/4	*M3/4
2.r	2B-\
.	8.G\L
.	16G\Jk
=12||	=12||
*M2/4	*M2/4
2r	4F\
.	(12F\L
.	12D\)
.	12D\J
=13	=13
2r	[2F\
=14	=14
2r	8.F\L]
.	16F\Jk
.	8F\L
.	8F\J
=15||	=15||
*M3/4	*M3/4
2.r	2G-\
.	8.F\L
.	16F\Jk
=16	=16
2.r	8.D\L
.	16F\Jk
.	8F\L
.	8F\J
.	Fq/
.	(12D\L
.	12C\)
.	12D\J
=17	=17
2.r	4BB-/
.	2BB-/
==	==
*-	*-
